X:170
T: Girl of the Big House
T: Housekeeper
T: Cail\'in an T\'i Mh\'oir
S: B.Breathnach: "Ceol Rince na hEireann" II/40
Z: B.Black
L: 1/8
M: 6/8
R: jig
K: G
E|F2D G2E|A2D FED|EFD G2E|FED EDE|
FEF GFG|AGA cde|dcA GEA|1 DED D2E :|2\ DED D2||
F|ABc AGF|GGG GFG|A2B cAG|ABc d2e|
fed cAG|FAG FED|dcA GEA|1 DED D2 :|2\
DE/F/A dc/A/G||

